!!!SOCIAL_FUNCTION:	dream songs
!!!PDT:	1909
!!!OTL: No_114_My_Voice_Is_Heard.krn
!!!REG: Great_Lakes
!!!LANG: Non-Tone
!!!LING_GROUP: Algonquin
**kern	**kern
*staff2	*staff1
*clefF4	*clefF4
*k[b-e-a-d-]	*k[b-e-a-d-]
*M2/4	*M2/4
8GG/	8f\
=1	=1
12GG^/	[2f\
12r	.
12GG/	.
12GG^/	.
12r	.
12GG/	.
=2	=2
2r	4f\]
.	8.e-\L
.	16e-\Jk
=3	=3
2r	[2e-\
=4	=4
2r	4e-\]
.	8.c\L
.	16e-\Jk
=5	=5
2r	2e-\
=6	=6
2r	4e-\
.	8.c-\L
.	16B-\Jk
=7	=7
2r	12e-\L
.	12c-\
.	12B-\J
.	8.B-\L
.	16B-\Jk
=8	=8
2r	4.B-\
.	8B-\
=9||	=9||
*M3/4	*M3/4
2.r	[4B-\
.	4..B-\]
.	16f\
=10||	=10||
*M2/4	*M2/4
2r	[2f\
=11	=11
2r	4f\]
.	8.e-\L
.	16e-\Jk
=12	=12
2r	[2e-\
=13	=13
2r	4e-\]
.	8.c-\L
.	16e-\Jk
=14	=14
2r	2e-\
=15	=15
2r	4e-\
.	8.c-\L
.	16B-\Jk
=16	=16
2r	12e-\L
.	12c-\
.	12B-\J
.	8.B-\L
.	16B-\Jk
=17	=17
2r	4.B-\
.	8B-\
=18||	=18||
*M3/4	*M3/4
2.r	[2B-\
.	8B-\L]
.	16e-\L
.	16e-\JJ
=19||	=19||
*M2/4	*M2/4
2r	2e-\
=20	=20
2r	8e-\L
.	8c-\J
.	8.B-\L
.	16c-\Jk
=21	=21
2r	2B-\
=22	=22
2r	8B-\L
.	8B-\J
.	8.G\L
.	16c\Jk
=23	=23
2r	2B-\
=24	=24
2r	4c\
.	8.B-\L
.	16c\Jk
=25	=25
2r	12G^\L
.	12A-\
.	12G\J
.	12F^\L
.	12G\
.	12F\J
=26||	=26||
*M3/4	*M3/4
2.r	8.E-\L
.	16E-\Jk
.	4.E-\
.	8E-\
=27	=27
2.r	[4E-\
.	4..E-\]
.	16B-\
=28||	=28||
*M2/4	*M2/4
2r	2B-\
=29	=29
2r	4B-\
.	8.G\L
.	16c\Jk
=30	=30
2r	2B-\
=31	=31
2r	4c\
.	8.B-\L
.	16c\Jk
=32	=32
2r	12G^\L
.	12A-\
.	12G\J
.	12F^\L
.	12G\
.	12F\J
=33	=33
2r	8.E-\L
.	16E-\Jk
.	[4E-\
=34	=34
2r	4E-\]
.	8.C/L
.	16E-/Jk
=35	=35
2r	2E-\
=36||	=36||
*M3/4	*M3/4
2.r	4E-\
.	4E-\
.	4C/
=37	=37
2.r	8.BB-/L
.	16BB-/Jk
.	[4BB-/
.	8.BB-/L]
.	16BB-/Jk
=38	=38
2.r	2.BB-/
==	==
*-	*-
